Papirus/16x16/actions/boundingbox_top_left.svg

<?xml version="1.0" encoding="UTF-8" standalone="no"?>
<svg xmlns:osb="http://www.openswatchbook.org/uri/2009/osb" xmlns:dc="http://purl.org/dc/elements/1.1/" xmlns:cc="http://creativecommons.org/ns#" xmlns:rdf="http://www.w3.org/1999/02/22-rdf-syntax-ns#" xmlns:svg="http://www.w3.org/2000/svg" xmlns="http://www.w3.org/2000/svg" width="16" height="16" viewBox="0 0 16 16" id="svg6394" version="1.1">
    <defs id="defs6396">
        <linearGradient id="linearGradient19282" osb:paint="solid" gradientTransform="matrix(-0.40801424,2.7359005,1.4465395,0.18903615,2588.4859,828.26016)">
            <stop style="stop-color:#000000;stop-opacity:1;" offset="0" id="stop19284"/>
        </linearGradient>
        <linearGradient id="linearGradient19282-3" osb:paint="solid" gradientTransform="matrix(-2.7359006,0.40801425,-0.18903616,-1.4465395,-804.26018,-2564.486)">
            <stop style="stop-color:#000000;stop-opacity:1;" offset="0" id="stop19284-6"/>
        </linearGradient>
        <linearGradient gradientTransform="matrix(-2.73658,0.4081035,-0.1890831,-1.446856,-1254.4599,-3933.7766)" osb:paint="solid" id="linearGradient19282-36">
            <stop id="stop19284-7" offset="0" style="stop-color:#666666;stop-opacity:1;"/>
        </linearGradient>
    </defs>
    <metadata id="metadata6399">
        <rdf:RDF>
            <cc:Work rdf:about="">
                <dc:format>
                    image/svg+xml
                </dc:format>
                <dc:type rdf:resource="http://purl.org/dc/dcmitype/StillImage"/>
                <dc:title/>
            </cc:Work>
        </rdf:RDF>
    </metadata>
    <path style="opacity:0.5;fill:#000000;fill-opacity:1;stroke:none;stroke-width:2;stroke-linecap:round;stroke-linejoin:round;stroke-miterlimit:4;stroke-dasharray:none;stroke-opacity:1" d="M 4,16 4,9.894531 C 3.9979,9.894113 3.9962,9.893031 3.9941,9.892531 3.438127,9.7776646 2.905777,9.5689518 2.419881,9.275344 2.407901,9.268144 2.394681,9.263134 2.382771,9.255814 2.159233,9.1171548 1.946986,8.9610713 1.748006,8.789017 1.725496,8.769697 1.703756,8.750127 1.681596,8.730427 1.484024,8.5563702 1.300511,8.3669788 1.132768,8.16402 1.128668,8.15892 1.125168,8.15346 1.121048,8.1484 0.955053,7.9437283 0.805498,7.7262538 0.673782,7.498009 0.664982,7.482779 0.655102,7.468409 0.646442,7.453089 0.520359,7.2274583 0.411961,6.9923908 0.322224,6.75 0.309734,6.71673 0.296914,6.68397 0.285114,6.65039 0.200904,6.4115964 0.134963,6.1667514 0.087848,5.917968 0.079848,5.875338 0.075208,5.832028 0.068318,5.789061 0.024745,5.528262 0.001886,5.264414 0,5 8.8e-4,4.855226 0.0081,4.710558 0.02148,4.566406 0.02898,4.479496 0.04087,4.394179 0.05273,4.308594 0.06273,4.232164 0.07441,4.155969 0.08789,4.080078 0.09789,4.026528 0.11138,3.974809 0.12305,3.921875 0.18422,3.642989 0.269166,3.369856 0.376956,3.105469 0.395026,3.061459 0.416276,3.019929 0.435546,2.976562 0.547011,2.721149 0.679635,2.475503 0.83203,2.242188 0.85451,2.208298 0.88102,2.177838 0.9043,2.144528 1.067796,1.907796 1.25142,1.685618 1.453128,1.480466 1.467808,1.465676 1.483198,1.452106 1.498048,1.437496 1.71143,1.22563 1.943491,1.033445 2.191407,0.863277 c 0.01614,-0.01099 0.0345,-0.0185 0.05078,-0.0293 0.251388,-0.167602 0.517451,-0.312073 0.794922,-0.43164 l 0.01563,-0.0078 c 0.0076,-0.0032 0.01582,-0.0046 0.02344,-0.0078 0.286954,-0.119884 0.584467,-0.212734 0.888672,-0.277344 0.01388,-0.0029 0.0271,-0.007 0.04102,-0.0098 0.162141,-0.03271 0.326728,-0.05761 0.49414,-0.07422 C 4.666138,0.008571 4.833014,1.03e-4 5,0 c 0.289423,3.57e-4 0.578268,0.02584 0.863281,0.07617 0.01385,0.0024 0.0272,0.0053 0.04102,0.0078 0.2406499,0.0457 0.4776161,0.109021 0.7089845,0.189454 0.044356,0.01516 0.088997,0.02856 0.1328126,0.04492 0.2243782,0.08449 0.4423889,0.18501 0.6523439,0.300782 0.04699,0.02576 0.09258,0.05285 0.138671,0.08008 0.209551,0.121999 0.40995,0.259079 0.59961,0.410156 0.02703,0.0218 0.05155,0.046 0.07813,0.06836 0.177718,0.149646 0.344789,0.311496 0.5,0.484375 0.02286,0.02543 0.04796,0.04831 0.07031,0.07422 0.157246,0.184633 0.300855,0.380463 0.429684,0.585938 0.03004,0.04724 0.05939,0.09422 0.08789,0.142578 0.127155,0.214078 0.238141,0.437355 0.332032,0.667968 0.0106,0.02635 0.01913,0.0535 0.0293,0.08008 C 9.763644,3.468385 9.842031,3.731645 9.898438,4 L 16,4 16,6 9.894531,6 c -5.42e-4,0.0027 -0.0014,0.0052 -0.002,0.0078 -0.04826,0.2361761 -0.113532,0.4685531 -0.195312,0.695313 l -0.0039,0.01172 c -7.06e-4,0.0019 -0.0012,0.0039 -0.002,0.0059 -0.08184,0.2201107 -0.179086,0.4341823 -0.291015,0.640625 -0.0098,0.01831 -0.01926,0.03651 -0.0293,0.05469 -0.101008,0.1812814 -0.213205,0.3560985 -0.335938,0.523437 -0.01848,0.0254 -0.03574,0.05114 -0.05469,0.07617 C 8.843278,8.1981892 8.693839,8.3711198 8.53311,8.533233 8.376768,8.6879101 8.210391,8.8321036 8.035063,8.964874 8.005583,8.987494 7.977163,9.011264 7.947173,9.033234 7.584445,9.2981304 7.187677,9.5129433 6.7675781,9.671875 6.7313231,9.685615 6.6948621,9.698015 6.6582031,9.710935 6.4433421,9.7883958 6.223426,9.8510436 6,9.898438 L 6,16 Z" id="path4397"/>
</svg>

<?xml version="1.0" encoding="UTF-8" standalone="no"?>
<svg id="svg6394" xmlns:rdf="http://www.w3.org/1999/02/22-rdf-syntax-ns#" xmlns="http://www.w3.org/2000/svg" xmlns:osb="http://www.openswatchbook.org/uri/2009/osb" height="16" width="16" version="1.1" xmlns:cc="http://creativecommons.org/ns#" viewBox="0 0 16 16" xmlns:dc="http://purl.org/dc/elements/1.1/">
 <metadata id="metadata6399">
  <rdf:RDF>
   <cc:Work rdf:about="">
    <dc:format>image/svg+xml</dc:format>
    <dc:type rdf:resource="http://purl.org/dc/dcmitype/StillImage"/>
    <dc:title/>
   </cc:Work>
  </rdf:RDF>
 </metadata>
 <path id="path4397" opacity=".5" d="m4 16v-6.1055c-0.0021-0.0004-0.0038-0.0015-0.0059-0.002-0.556-0.1148-1.0883-0.3235-1.5742-0.6172-0.012-0.0072-0.0252-0.0122-0.0371-0.0195-0.2236-0.1386-0.4358-0.2947-0.6348-0.4668-0.0225-0.0193-0.0442-0.0389-0.0664-0.0586-0.1976-0.174-0.3811-0.3634-0.5488-0.5664-0.0041-0.0051-0.0076-0.0105-0.0118-0.0156-0.16595-0.2047-0.3155-0.4221-0.44722-0.6504-0.0088-0.0152-0.01868-0.0296-0.02734-0.0449-0.12608-0.2256-0.23448-0.4607-0.32422-0.7031-0.01249-0.0333-0.02531-0.066-0.03711-0.0996-0.08421-0.2388-0.15015-0.4836-0.19726-0.7324-0.008002-0.0427-0.012642-0.086-0.019532-0.1289-0.043573-0.2608-0.066432-0.5247-0.068318-0.7891 0.00088-0.1448 0.0081-0.2894 0.02148-0.4336 0.0075-0.0869 0.01939-0.1722 0.03125-0.2578 0.01-0.0764 0.02168-0.1526 0.03516-0.2285 0.01-0.0536 0.02349-0.1053 0.03516-0.1582 0.06117-0.2789 0.14612-0.552 0.25391-0.8164 0.01807-0.044 0.03932-0.0856 0.05859-0.1289 0.11146-0.2555 0.24409-0.5011 0.39648-0.7344 0.02248-0.0339 0.04899-0.0644 0.07227-0.0977 0.1635-0.2367 0.3471-0.4589 0.5488-0.664 0.0147-0.0148 0.0301-0.0284 0.0449-0.043 0.2134-0.2119 0.4455-0.4041 0.6934-0.57422 0.01614-0.01099 0.0345-0.0185 0.05078-0.0293 0.25139-0.1676 0.51745-0.31207 0.79492-0.43164l0.01563-0.0078c0.0076-0.0032 0.01582-0.0046 0.02344-0.0078 0.28695-0.11988 0.58447-0.21273 0.88867-0.27734 0.01388-0.0029 0.0271-0.007 0.04102-0.0098 0.16214-0.03271 0.32673-0.05761 0.49414-0.07422 0.1661-0.016809 0.333-0.025277 0.5-0.02538 0.28942 0.000357 0.57827 0.02584 0.86328 0.07617 0.01385 0.0024 0.0272 0.0053 0.04102 0.0078 0.24065 0.0457 0.47762 0.10902 0.70898 0.18945 0.044356 0.01516 0.088997 0.02856 0.13281 0.04492 0.22438 0.08449 0.44239 0.18501 0.65234 0.30078 0.04699 0.02576 0.09258 0.05285 0.13867 0.08008 0.20955 0.122 0.40995 0.25908 0.59961 0.41016 0.02703 0.0218 0.05155 0.046 0.07813 0.06836 0.17772 0.14965 0.34479 0.3115 0.5 0.48438 0.02286 0.02543 0.04796 0.04831 0.07031 0.07422 0.15725 0.18463 0.30086 0.38046 0.42968 0.58594 0.03004 0.04724 0.05939 0.09422 0.08789 0.14258 0.12716 0.21408 0.23814 0.43736 0.33203 0.66797 0.0106 0.02635 0.01913 0.0535 0.0293 0.08008 0.0996 0.2554 0.178 0.5186 0.2344 0.787h6.1016v2h-6.1055c-0.000542 0.0027-0.0014 0.0052-0.002 0.0078-0.04826 0.23618-0.11353 0.46855-0.19531 0.69531l-0.0039 0.01172c-0.000706 0.0019-0.0012 0.0039-0.002 0.0059-0.08184 0.22011-0.17909 0.43418-0.29102 0.64062-0.0098 0.01831-0.01926 0.03651-0.0293 0.05469-0.10101 0.18128-0.2132 0.3561-0.33594 0.52344-0.01848 0.0254-0.03574 0.05114-0.05469 0.07617-0.1371 0.1826-0.2866 0.3555-0.4473 0.5176-0.1563 0.1547-0.3227 0.2989-0.498 0.4317-0.0295 0.0226-0.0579 0.0464-0.0879 0.0683-0.3628 0.2649-0.7595 0.4797-1.1796 0.6387-0.0363 0.0137-0.0727 0.0261-0.1094 0.039-0.2149 0.0775-0.4348 0.1401-0.6582 0.1875v6.1016z"/>
</svg>
